polaris-icons/icons/newicons/PageMinusMajor.svg

<svg width="20" height="20" viewBox="0 0 20 20" fill="none" xmlns="http://www.w3.org/2000/svg">
<path fill-rule="evenodd" clip-rule="evenodd" d="M5.5 4.75C5.5 4.05964 6.05964 3.5 6.75 3.5H9.25V7C9.25 7.9665 10.0335 8.75 11 8.75H14.5V12.75C14.5 13.1642 14.8358 13.5 15.25 13.5C15.6642 13.5 16 13.1642 16 12.75V8C16 7.80109 15.921 7.61032 15.7803 7.46967L10.5303 2.21967C10.3897 2.07902 10.1989 2 10 2H6.75C5.23122 2 4 3.23122 4 4.75V15.25C4 16.7688 5.23122 18 6.75 18H8.75C9.16421 18 9.5 17.6642 9.5 17.25C9.5 16.8358 9.16421 16.5 8.75 16.5H6.75C6.05964 16.5 5.5 15.9404 5.5 15.25V4.75ZM13.4393 7.25L10.75 4.56066V7C10.75 7.13807 10.8619 7.25 11 7.25H13.4393Z" fill="black"/>
<path d="M11.75 15C11.3358 15 11 15.3358 11 15.75C11 16.1642 11.3358 16.5 11.75 16.5H16.25C16.6642 16.5 17 16.1642 17 15.75C17 15.3358 16.6642 15 16.25 15H11.75Z" fill="black"/>
</svg>

<svg viewBox="0 0 20 20" fill="none" xmlns="http://www.w3.org/2000/svg"><path fill-rule="evenodd" clip-rule="evenodd" d="M5.5 4.75c0-.69.56-1.25 1.25-1.25h2.5v3.5c0 .966.784 1.75 1.75 1.75h3.5v4a.75.75 0 0 0 1.5 0v-4.75a.75.75 0 0 0-.22-.53l-5.25-5.25a.75.75 0 0 0-.53-.22h-3.25a2.75 2.75 0 0 0-2.75 2.75v10.5a2.75 2.75 0 0 0 2.75 2.75h2a.75.75 0 0 0 0-1.5h-2c-.69 0-1.25-.56-1.25-1.25v-10.5Zm7.94 2.5-2.69-2.69v2.44c0 .138.112.25.25.25h2.44Z" fill="#5C5F62"/><path d="M11.75 15a.75.75 0 0 0 0 1.5h4.5a.75.75 0 0 0 0-1.5h-4.5Z" fill="#5C5F62"/></svg>
